src/Pure-Dark/16/symbolic/categories/cs-desklets-symbolic.svg

<svg width="16" height="16" version="1.1">
 <path d="m3 1c-1.108 0-2 0.892-2 2v10c0 1.108 0.892 2 2 2h6.5859 0.41406 1l4-4v-1-7c0-1.108-0.892-2-2-2h-10zm0 3h10c0.554 0 1 0.446 1 1v5h-2c-1.108 0-2 0.892-2 2v2h-7c-0.554 0-1-0.446-1-1v-8c0-0.554 0.446-1 1-1zm9 7h1.5859l-2.5859 2.5859v-1.5859c0-0.554 0.446-1 1-1z" fill="#f2f2f2"/>
</svg>

<?xml version="1.0" encoding="UTF-8" standalone="no"?>
<svg
   width="16"
   height="16"
   version="1.1"
   id="svg1"
   sodipodi:docname="cs-desklets-symbolic.svg"
   inkscape:version="1.4.2 (ebf0e940d0, 2025-05-08)"
   xmlns:inkscape="http://www.inkscape.org/namespaces/inkscape"
   xmlns:sodipodi="http://sodipodi.sourceforge.net/DTD/sodipodi-0.dtd"
   xmlns="http://www.w3.org/2000/svg"
   xmlns:svg="http://www.w3.org/2000/svg">
  <defs
     id="defs1">
     <style
        id="current-color-scheme"
        type="text/css">
        .ColorScheme-Text { color:#f2f2f2; }
        .ColorScheme-NeutralText { color:#f67400; }
        .ColorScheme-PositiveText { color:#37c837; }
        .ColorScheme-NegativeText { color:#f44336; }
        .ColorScheme-Highlight { color:#3daee9; }
     </style>
  </defs>
  <sodipodi:namedview
     id="namedview1"
     pagecolor="#ffffff"
     bordercolor="#000000"
     borderopacity="0.25"
     inkscape:showpageshadow="2"
     inkscape:pageopacity="0.0"
     inkscape:pagecheckerboard="0"
     inkscape:deskcolor="#d1d1d1"
     inkscape:zoom="49.6875"
     inkscape:cx="8"
     inkscape:cy="8"
     inkscape:window-width="1920"
     inkscape:window-height="1010"
     inkscape:window-x="0"
     inkscape:window-y="0"
     inkscape:window-maximized="1"
     inkscape:current-layer="svg1" />
  <path
     id="path1"
     class="ColorScheme-Text"
     style="fill:currentColor"
     d="M 3 1 C 1.892 1 1 1.892 1 3 L 1 13 C 1 14.108 1.892 15 3 15 L 11 15 L 15 11 L 15 3 C 15 1.892 14.108 1 13 1 L 3 1 z M 3 4 L 13 4 C 13.554 4 14 4.446 14 5 L 14 10 L 12 10 C 10.892 10 10 10.892 10 12 L 10 14 L 3 14 C 2.446 14 2 13.554 2 13 L 2 5 C 2 4.446 2.446 4 3 4 z M 12 11 L 13.585938 11 L 11 13.585938 L 11 12 C 11 11.446 11.446 11 12 11 z " />
</svg>
